X:1
T:Man acht't gering
T:Sixtus Dietrich
T:Source : DDT 34---Leipzig---Breitkopf & Härtel---J.Wolf---1908. First print : Newe Deudsche Geistliche Gesenge---Wittemberg---G.Rhau---1544. Editor : André Vierendeels (31/07/17).
T:Notes : Original clefs : C1, C3, C4, F4 Original note values have been halved Editorial accidentals above the staff
T:Man acht't gering
T:©
T:©
T:©
C:Sixtus Dietrich
Z:©
%%score [ 1 [ 2 3 ] 4 ]
L:1/8
Q:1/4=120
M:2/2
K:C
V:1 treble nm="Alto" snm="A"
V:2 treble-8 nm="Tenor 1" snm="T 1"
V:3 treble-8 nm="Tenor 2" snm="T 2"
V:4 bass nm="Bass" snm="B"
V:1
 z8 | z8 | A8 | A4 G4 | F8- | F8 | z4 G4 | A4 B4 | E8 | z4 z2 G2- | G2 A2 B4 | E8 | z4 z2 G2 | %13
w: ||Man|acht't ge-|ring|_|e-|wi- ge|Ding,|der|_ zeit- lich|Pracht,|der|
 A4 B4 | E2 c2 BAGF | E2 A4 G2 | A4 z2 G2- | G2 A2 B4 | E2 c3 BAG | F4 E4- | E8- | E4 E4 | %22
w: zeit- lich|Pracht wird mehr _ _ _|_ _ ge-|acht't. Nach|_ Schön, Ehr,|Gut _ _ _ _|_ _||* man|
 D2 G4 F2 | G4 z4 | G4 A4 | A4 B4 | E2 c4 B2 | A3 G A4 | B4 E2 A2- |"^#" A2 GF G4 | A6 G2 | %31
w: fra- * gen|tut,|sieht nie-|mand an,|dasz al- le|Ding, _ _|[zeit- lich ver-||gan,] zeit-|
 F2 E2 F4 | E8 |] %33
w: lich _ ver-|gan.|
V:2
 d8 | d4 c4 | A4 z2 c2 | d4 e4 | A4 z4 | z4 e4- | e4 e4 | d4 B4 | c2 e3 dcB | c2 A2 B2 e2 | %10
w: Man|acht't ge-|ring e-|wi- ge|Ding,|man|_ acht't|ge- ring|e- * * * *|wi- ge Ding, man|
 e2 d2 B4 | c4 B2 e2- | e2 dc d4 | e6 e2 | e4 d2 g2- | g2 fe d4 | c4 d2 e2- | ed c2 B4 | %18
w: acht't ge- ring|e- * *|* wi- * ge|Ding, der|zeit- lich Pracht|_ _ _ _|* wird mehr|_ _ _ ge-|
 A2 e2 e2 e2 | d3 c B4 | A2 c3 def | g4 z2 G2- | GABc d4 | z2 d2 c2 e2- | e2 d2 cBAG | A4 G2 g2- | %26
w: acht't. Nach Schön, Ehr,|Gut _ _|man fra- * * *|gen tut,|_ _ _ _ _|sieht nie- *||mand an, dasz|
 gfed c2 c2 | d3 e fgaf | g2 d2 e4 | d4 G4 | z2 c2 d2 e2 | A2 e2 d2 d2 | c8 |] %33
w: _ _ _ _ all die|Ding _ _ _ _ _|_ zeit- lich|ver- gan,|dasz all die|Ding zeit- lich ver-|gan.|
V:3
 z8 | z8 | z8 | z8 | z8 | z8 | z8 | z8 | A8 | A4 G4 | E8 | z4 G4 | A4 B4 | E8 | z4 G4 | A4 B4 | %16
w: ||||||||Man|acht't ge-|ring,|e-|wi- ge|Ding,|der|zeit- lich|
 E2 c2 BAGF | E2 A4 G2 | A8 | z4 G4 | c4 c4 | G4 c4 | B2 G2 A4 | G8 | z4 c4 | d4 d4 | e4 e4 | %27
w: Pracht wird mehr _ _ _|_ _ ge-|acht't.|Nach|Schön, Ehr,|Gut man|fra- * gen|tut,|sieht|nie- mand|an, dasz|
 f3 e d2 c2 | d4 c4 | B4 B4 | A8- | A8- | A8 |] %33
w: al- * * le|Ding zeit-|lich ver-|gan.|_||
V:4
 z8 | z8 | z8 | z8 | A,8 | A,4 G,4 | E,8 | z4 z2 G,2 | A,2 C3 B,A,G, | F,2 F,2 E,4- | E,2 F,2 G,4 | %11
w: ||||Man|acht't ge-|ring|e-|wi- * * * *|* ge Ding,|_ _ _|
 C,3 D, E,4 | A,,2 C,2 B,,4 | A,,4 z2 E,2- | E,2 F,2 G,F,E,D, | C,2 D,2 B,,4 | A,,2 A,2 G,F,E,D, | %17
w: der _ _|zeit- * lich|Pracht wird|_ _ mehr _ _ _|_ _ ge-|acht't, wird mehr- * * *|
 C,2 A,,2 E,4 | z4 z2 C,2 | D,4 E,4 | A,,8 | z2 C,3 D,E,F, | G,2 E,2 D,4 | G,,2 G,,2 C,4- | %24
w: * ge- acht't.|Nach|Schön, Ehr,|Gut|man _ _ _|fra- * gen|tut, sieht nie-|
 C,2 B,,2 A,,4 | D,4 G,,2 G,,2 | C,4 A,,4 | D,4 D,4 | G,,4 C,4 | D,2 D,2 E,4 | A,,2 F,4 E,2 | %31
w: * mand an,|dasz al- le|Ding zeit-|lich ver-|gan, sieht|nie- mand an,|dasz al- le|
 D,2 C,2 D,2 D,2 | A,,8 |] %33
w: Ding zeit- lich ver-|gan.|

